X:1
T:Hattie (Rupp), LM
T:Hattie (Rupp), LM
T:Henry S. Rupp, 1890
T:Public Domain Courtesy of the Cyber Hymnal™
C:Henry S. Rupp, 1890
Z:Public Domain
Z:Courtesy of the Cyber Hymnal™
%%score ( 1 2 ) ( 3 4 )
L:1/8
Q:1/4=110
M:3/4
K:A
V:1 treble 
V:2 treble 
V:3 bass 
V:4 bass 
V:1
 [CE]2 | [CE]4 [DF]2 | [FA]4 [GB]2 | [Ac]4 [GB]2 | !fermata!A4!>(! [Ac]2 | [Ac]4 [GB]2 | %6
 A4!>)! [EG]2 | [EA]4 [DF]2 | !fermata![CE]4 [CE]2 | [CE]4 [DF]2 | [EA]4 [Ec]2 | [Ac]4 [GB]2 | %12
 !fermata!A4!>(! [Ac]2 | [Ae]4 [Ac]2 | ([GB]2!>)! A2) [GB]2 | [Ac]4 [EB]2 | !fermata![EA]4 |] %17
V:2
 x2 | x6 | x6 | x6 | A4 x2 | x6 | A4 x2 | x6 | x6 | x6 | x6 | x6 | A4 x2 | x6 | x2 A2 x2 | x6 | %16
 x4 |] %17
V:3
 [A,,A,]2 | [A,,A,]4 [D,A,]2 | [D,D]4 [E,E]2 | [E,E]4 [E,E]2 | !fermata![A,,A,C]4 [A,E]2 | %5
 [A,E]4 [E,D]2 | [F,C]4 [E,B,]2 | [C,A,]4 [D,A,]2 | !fermata![A,,A,]4 [A,E]2 | [A,C]4 [A,E]2 | %10
 E2 C2 E2 | [E,E]4 [E,D]2 | !fermata![A,C]4 [A,E]2 | [A,C]4 [A,E]2 | (E2 C2) [E,E]2 | %15
 [E,E]4 [E,D]2 | !fermata![A,,C]4 |] %17
V:4
 x2 | x6 | x6 | x6 | x6 | x6 | x6 | x6 | x6 | x6 | E,4 x2 | x6 | x6 | x6 | E,4 x2 | x6 | x4 |] %17

